svgs/light/trash-can-list.svg

<svg xmlns="http://www.w3.org/2000/svg" viewBox="0 0 640 512"><!--! Font Awesome Pro 6.6.0 by @fontawesome - https://fontawesome.com License - https://fontawesome.com/license (Commercial License) Copyright 2024 Fonticons, Inc. --><path d="M169.7 32l76.5 0c5.5 0 10.6 2.8 13.6 7.5L275.1 64 140.9 64l15.3-24.5c2.9-4.7 8.1-7.5 13.6-7.5zM312.9 64L287 22.6C278.2 8.5 262.8 0 246.3 0L169.7 0C153.2 0 137.8 8.5 129 22.6L103.1 64 64 64 32 64 16 64C7.2 64 0 71.2 0 80s7.2 16 16 16l16 0 0 336c0 44.2 35.8 80 80 80l192 0c44.2 0 80-35.8 80-80l0-336 16 0c8.8 0 16-7.2 16-16s-7.2-16-16-16l-16 0-32 0-39.1 0zM352 96l0 336c0 26.5-21.5 48-48 48l-192 0c-26.5 0-48-21.5-48-48L64 96l288 0zM160 160c-8.8 0-16 7.2-16 16l0 224c0 8.8 7.2 16 16 16s16-7.2 16-16l0-224c0-8.8-7.2-16-16-16zm96 0c-8.8 0-16 7.2-16 16l0 224c0 8.8 7.2 16 16 16s16-7.2 16-16l0-224c0-8.8-7.2-16-16-16zm208-32c-8.8 0-16 7.2-16 16s7.2 16 16 16l160 0c8.8 0 16-7.2 16-16s-7.2-16-16-16l-160 0zm0 128c-8.8 0-16 7.2-16 16s7.2 16 16 16l128 0c8.8 0 16-7.2 16-16s-7.2-16-16-16l-128 0zM448 400c0 8.8 7.2 16 16 16l64 0c8.8 0 16-7.2 16-16s-7.2-16-16-16l-64 0c-8.8 0-16 7.2-16 16z"/></svg>

<svg xmlns="http://www.w3.org/2000/svg" viewBox="0 0 640 512"><!--! Font Awesome Pro 6.4.0 by @fontawesome - https://fontawesome.com License - https://fontawesome.com/license (Commercial License) Copyright 2023 Fonticons, Inc. --><path d="M169.7 32h76.5c5.5 0 10.6 2.8 13.6 7.5L275.1 64H140.9l15.3-24.5c2.9-4.7 8.1-7.5 13.6-7.5zM312.9 64L287 22.6C278.2 8.5 262.8 0 246.3 0H169.7C153.2 0 137.8 8.5 129 22.6L103.1 64H64 32 16C7.2 64 0 71.2 0 80s7.2 16 16 16H32V432c0 44.2 35.8 80 80 80H304c44.2 0 80-35.8 80-80V96h16c8.8 0 16-7.2 16-16s-7.2-16-16-16H384 352 312.9zM352 96V432c0 26.5-21.5 48-48 48H112c-26.5 0-48-21.5-48-48V96H352zM160 160c-8.8 0-16 7.2-16 16V400c0 8.8 7.2 16 16 16s16-7.2 16-16V176c0-8.8-7.2-16-16-16zm96 0c-8.8 0-16 7.2-16 16V400c0 8.8 7.2 16 16 16s16-7.2 16-16V176c0-8.8-7.2-16-16-16zm208-32c-8.8 0-16 7.2-16 16s7.2 16 16 16H624c8.8 0 16-7.2 16-16s-7.2-16-16-16H464zm0 128c-8.8 0-16 7.2-16 16s7.2 16 16 16H592c8.8 0 16-7.2 16-16s-7.2-16-16-16H464zM448 400c0 8.8 7.2 16 16 16h64c8.8 0 16-7.2 16-16s-7.2-16-16-16H464c-8.8 0-16 7.2-16 16z"/></svg>
